X:2970
T:Chief O'Neill's Favorite
M:C|
L:1/8
K:D Mixolydian
de|fefg afge|fde^c dBAG|FDDE FGAB|cAdc A2de|!
fefg afge|fde^c dBAG|FDDF GcAG|F2D2 D2:|!
DE|=FEDE FGAB|cAdB cAGB|Adde fded|cAdc A2de|!
fefg afge|fde^c dBAG|FDDF GcAG|F2D2 D2:|!


